X:306
T:Crabs In The Skillet
N:anon.
O:Ireland
B:Francis O'Neill: "The Dance Music of Ireland" (1907) no. 306
R:Double jig
Z:Transcribed by Frank Nordberg - http://www.musicaviva.com
N:Music Aviva - The Internet center for free sheet music downloads
M:6/8
L:1/8
K:Gm
D|:G3 d2^F|(G2A) (B2c)|ded cBA|dcB AGF|G3 d2^F|(G2A) (B2d)|cAc f=ed|[1
cAF F=E|:d|gag gf=e|fgf f=ed|cd=e fed|cAF G2d|gag gf=e|fgf f=ed|cd=e
 fed|[1 cAF F2:|[2 cAF F=EF||
|:G2 z A2 z|B2 z c2 z|ded cBA|dcB AG^F|G2 z A2 z|B2 z d2 z|cAc f=ed|[1
cAF F=E
